packages/design-system/src/icons/assets/btn_search_black_24.svg

<svg width="24" height="25" viewBox="0 0 24 25" fill="none" xmlns="http://www.w3.org/2000/svg">
<path d="M18.9 20.6L13.3 15C12.8 15.4 12.225 15.7167 11.575 15.95C10.925 16.1834 10.2333 16.3 9.5 16.3C7.68333 16.3 6.146 15.671 4.888 14.413C3.62933 13.1544 3 11.6167 3 9.80005C3 7.98338 3.62933 6.44572 4.888 5.18705C6.146 3.92905 7.68333 3.30005 9.5 3.30005C11.3167 3.30005 12.8543 3.92905 14.113 5.18705C15.371 6.44572 16 7.98338 16 9.80005C16 10.5334 15.8833 11.225 15.65 11.875C15.4167 12.525 15.1 13.1 14.7 13.6L20.325 19.225C20.5083 19.4084 20.6 19.6334 20.6 19.9C20.6 20.1667 20.5 20.4 20.3 20.6C20.1167 20.7834 19.8833 20.875 19.6 20.875C19.3167 20.875 19.0833 20.7834 18.9 20.6ZM9.5 14.3C10.75 14.3 11.8127 13.8627 12.688 12.988C13.5627 12.1127 14 11.05 14 9.80005C14 8.55005 13.5627 7.48738 12.688 6.61205C11.8127 5.73738 10.75 5.30005 9.5 5.30005C8.25 5.30005 7.18733 5.73738 6.312 6.61205C5.43733 7.48738 5 8.55005 5 9.80005C5 11.05 5.43733 12.1127 6.312 12.988C7.18733 13.8627 8.25 14.3 9.5 14.3Z" fill="#43444B"/>
</svg>

<svg xmlns="http://www.w3.org/2000/svg" width="24" height="25" fill="none"><path fill="#43444B" d="M18.9 20.6 13.3 15q-.75.6-1.725.95T9.5 16.3q-2.725 0-4.612-1.887T3 9.8t1.888-4.613Q6.775 3.3 9.5 3.3t4.613 1.887T16 9.8a6.1 6.1 0 0 1-1.3 3.8l5.625 5.625a.92.92 0 0 1 .275.675q0 .4-.3.7a.95.95 0 0 1-.7.275.95.95 0 0 1-.7-.275m-9.4-6.3q1.875 0 3.188-1.312Q14 11.675 14 9.8t-1.312-3.188Q11.375 5.3 9.5 5.3T6.312 6.612 5 9.8t1.312 3.188Q7.625 14.3 9.5 14.3"/></svg>
